polaris-icons/icons/newicons/BillingStatementDollarMajor.svg

<svg width="20" height="20" viewBox="0 0 20 20" fill="none" xmlns="http://www.w3.org/2000/svg">
<path d="M9.5 5.75C8.39543 5.75 7.5 6.64543 7.5 7.75C7.5 8.85457 8.39543 9.75 9.5 9.75H10.5C10.7761 9.75 11 9.97386 11 10.25C11 10.5261 10.7761 10.75 10.5 10.75H8.25C7.83579 10.75 7.5 11.0858 7.5 11.5C7.5 11.9142 7.83579 12.25 8.25 12.25H9V12.5C9 12.9142 9.33579 13.25 9.75 13.25C10.1642 13.25 10.5 12.9142 10.5 12.5V12.25C11.6046 12.25 12.5 11.3546 12.5 10.25C12.5 9.14543 11.6046 8.25 10.5 8.25H9.5C9.22386 8.25 9 8.02614 9 7.75C9 7.47386 9.22386 7.25 9.5 7.25H11.75C12.1642 7.25 12.5 6.91421 12.5 6.5C12.5 6.08579 12.1642 5.75 11.75 5.75H11V5.5C11 5.08579 10.6642 4.75 10.25 4.75C9.83579 4.75 9.5 5.08579 9.5 5.5V5.75Z" fill="black"/>
<path fill-rule="evenodd" clip-rule="evenodd" d="M4 16.5C4 17.1211 4.38275 17.6779 4.9626 17.9004C5.54245 18.1229 6.19945 17.9651 6.61493 17.5035L7.74999 16.2423L8.88506 17.5035C9.16952 17.8196 9.57477 18 10 18C10.4252 18 10.8305 17.8196 11.1149 17.5035L12.25 16.2423L13.3851 17.5035C13.8005 17.9651 14.4576 18.1229 15.0374 17.9004C15.6172 17.6779 16 17.1211 16 16.5V4.5C16 3.11929 14.8807 2 13.5 2H6.5C5.11929 2 4 3.11929 4 4.5V16.5ZM5.5 16.5L7.00671 14.8259C7.40395 14.3845 8.09605 14.3845 8.49329 14.8259L10 16.5L11.5067 14.8259C11.904 14.3845 12.5961 14.3845 12.9933 14.8259L14.5 16.5V4.5C14.5 3.94772 14.0523 3.5 13.5 3.5H6.5C5.94772 3.5 5.5 3.94772 5.5 4.5V16.5Z" fill="black"/>
</svg>

<svg viewBox="0 0 20 20" fill="none" xmlns="http://www.w3.org/2000/svg"><path d="M9.5 5.75a2 2 0 1 0 0 4h1a.5.5 0 0 1 0 1h-2.25a.75.75 0 0 0 0 1.5h.75v.25a.75.75 0 0 0 1.5 0v-.25a2 2 0 1 0 0-4h-1a.5.5 0 0 1 0-1h2.25a.75.75 0 0 0 0-1.5h-.75v-.25a.75.75 0 0 0-1.5 0v.25Z" fill="#000"/><path fill-rule="evenodd" clip-rule="evenodd" d="M4 16.5a1.5 1.5 0 0 0 2.615 1.003l1.135-1.26 1.135 1.26a1.5 1.5 0 0 0 2.23 0l1.135-1.26 1.135 1.26a1.5 1.5 0 0 0 2.615-1.003v-12a2.5 2.5 0 0 0-2.5-2.5h-7a2.5 2.5 0 0 0-2.5 2.5v12Zm1.5 0 1.507-1.674a1 1 0 0 1 1.486 0l1.507 1.674 1.507-1.674a1 1 0 0 1 1.486 0l1.507 1.674v-12a1 1 0 0 0-1-1h-7a1 1 0 0 0-1 1v12Z" fill="#000"/></svg>
